svgs/sharp-solid/mountain-city.svg

<svg xmlns="http://www.w3.org/2000/svg" viewBox="0 0 640 512"><!--! Font Awesome Pro 6.6.0 by @fontawesome - https://fontawesome.com License - https://fontawesome.com/license (Commercial License) Copyright 2024 Fonticons, Inc. --><path d="M288 0l0 144.4L357.7 256l58.3 0 0 64-18.3 0L507.1 495l10.6 17L640 512l0-320-72 0 0-72 0-24-48 0 0 24 0 72-40 0L480 0 288 0zm64 64l64 0 0 64-64 0 0-64zm64 96l0 64-64 0 0-64 64 0zm160 96l0 64-64 0 0-64 64 0zm-64 96l64 0 0 64-64 0 0-64zM480 512l-30-48L268.3 173.3 240 128l-28.3 45.3L30 464 0 512l56.6 0 366.8 0 56.6 0zM240 218.6L303.4 320 240 320l-48 64-30.2-40.3L240 218.6z"/></svg>

<svg xmlns="http://www.w3.org/2000/svg" viewBox="0 0 640 512"><!--! Font Awesome Pro 6.4.0 by @fontawesome - https://fontawesome.com License - https://fontawesome.com/license (Commercial License) Copyright 2023 Fonticons, Inc. --><path d="M288 0V144.4L357.7 256H416v64H397.7L507.1 495l10.6 17H640V192H568V120 96H520v24 72H480V0H288zm64 64h64v64H352V64zm64 96v64H352V160h64zm160 96v64H512V256h64zm-64 96h64v64H512V352zM480 512l-30-48L268.3 173.3 240 128l-28.3 45.3L30 464 0 512H56.6 423.4 480zM240 218.6L303.4 320H240l-48 64-30.2-40.3L240 218.6z"/></svg>
